X:1
T:5B
%%score { ( 1 2 ) | ( 3 4 5 ) }
L:1/8
M:4/4
K:Bb
V:1 treble 
V:2 treble 
V:3 bass 
V:4 bass 
V:5 bass 
V:1
 B4 A2 G2 | F2 ED G2 G2 | F4 z4 | B4 A2 G2 | F2 ED G2 G2 | %5
[Q:1/4=72]"^Adagio" !fermata!F2 z[Q:1/4=120]"^Allegretto" F G2 A2 | (B2 d3 c) B2 | (B2 A2) B4 | %8
 B4 A2 G2 | F2 ED G2 G2 | F4 z4 | B4 A2 G2 | F2 ED G2 G2 | %13
[Q:1/4=72]"^Adagio" !fermata!F2 z[Q:1/4=120]"^Allegretto" F G2 A2 | (B2 d3 c) B2 | (B2 A2) B4 | %16
 z2 B2 B2 c2 | B2 G2 B2 B2 | A2 z A B2 c2 | B2 G2 B2 B2 | %20
[Q:1/4=72]"^Adagio" !fermata!A4[Q:1/4=120]"^Allegretto" B2 dd | %21
 cBBA[Q:1/4=72]"^Adagio" !fermata!B2[Q:1/4=120]"^Allegretto" A2 | B6 A2 | G2 F2 F2 =E2 | F8 | %25
 z4 d4 | c4 B4 | A2 d2 e2 c2 | B2 c2 B2 A2 | B2 z B B2 B2 | d2 B2 B2 A2 | B8 |] %32
V:2
 F4 F2 D2 | D2 B,2 B,2 C2 | D4 z4 | F4 F2 D2 | D2 B,2 B,2 C2 | D2 z D D2 F2 | F6 G2 | F4 F4 | %8
 F4 F2 D2 | D2 B,2 B,2 C2 | D4 z4 | F4 F2 D2 | D2 B,2 B,2 C2 | D2 z D D2 F2 | F6 G2 | F4 F4 | %16
 z2 F2 F2 F2 | F2 E2 D2 =E2 | F2 z F F2 F2 | F2 E2 D2 =E2 | F4 F2 BB | GFGF F2 F2 | F6 F2 | %23
 E2 D2 D2 C2 | C8 | z4 F4 | F6 =E2 | F2 F2 G2 F2 | D2 G2 F2 F2 | F2 z F G2 F2 | E2 F2 C2 C2 | D8 |] %32
V:3
 D4 C2 B,2 | A,2 G,F, G,2 G,2 | A,4 z4 | D4 C2 B,2 | A,2 G,F, G,2 G,2 | A,2 z A, B,2 C2 | D6 ED | %7
 C4 D4 | D4 C2 B,2 | A,2 G,F, G,2 G,2 | A,4 z4 | D4 C2 B,2 | A,2 G,F, G,2 G,2 | A,2 z A, B,2 C2 | %14
 D6 ED | C4 D4 | x8 | x8 | x8 | x8 | x8 | z8 | x8 | x8 | x8 | x8 | x8 | x8 | x8 | x8 | x8 | x8 |] %32
V:4
 B,,4 F,2 G,2 | D,2 E,B,, E,2 E,2 | D,4 z4 | B,,4 F,2 G,2 | D,2 E,B,, E,2 E,2 | D,2 z D, G,2 F,2 | %6
 B,6 E,2 | F,4 B,,4 | B,,4 F,2 G,2 | D,2 E,B,, E,2 E,2 | D,4 z4 | B,,4 F,2 G,2 | %12
 D,2 E,B,, E,2 E,2 | D,2 z D, G,2 F,2 | B,6 E,2 | F,4 B,,4 | z2 B,2 B,2 A,2 | B,2 E,2 G,2 G,2 | %18
 F,2 z F, B,2 A,2 | B,2 E,2 G,2 G,2 | F,4 B,2 B,B,, | C,D,E,F, B,,2 F,2 | B,,6 F,2 | %23
 C,2 D,2 B,,2 C,2 | F,,8 | z4 B,,4 | F,4 G,4 | F,2 B,2 E,2 F,2 | G,2 C,2 D,E, F,2 | %29
 B,,2 z B,, E,2 D,2 | C,2 D,2 E,2 F,2 | B,,8 |] %32
V:5
 x8 | x8 | x8 | x8 | x8 | x8 | x8 | x8 | x8 | x8 | x8 | x8 | x8 | x8 | x8 | x8 | z2 D2 D2 C2 | %17
 D2 B,2 B,2 B,2 | C2 z C D2 C2 | D2 B,2 B,2 B,2 | C4 E2 FF | EDCC D2 C2 | D6 C2 | C2 C2 A,2 B,2 | %24
 A,8 | z4 B,4 | A,4 B,4 | C2 B,2 B,2 A,2 | B,2 E2 D2 C2 | D2 z D B,2 B,2 | G,A, B,2 G,2 F,2 | %31
 F,8 |] %32

